!!!!SEGMENT: pl-wumfc--n44063--002_zelenski-wladyslaw--dwie-piesni-op-12.krn
!!!cenid: 18xx:4072
!!!COM: Żeleński, Władysław
!!!COM-rismID: pe41024455
!!!CDT: 1837/07/06-1921/01/23
!!!CNT: Polish
!!!OTL: Dwie pieśni op. 12
!!!PDT:
!!!AGN:
!!!YEC: Copyright 2022 Narodowy Instytut Fryderyka Chopina (https://polishscores.org)
!!!YEM: License CC-BY-4.0 (https://creativecommons.org/licenses/by/4.0)
!!!SMS-siglum: PL-Wumfc
!!!SMS-shelfmark: N44063
!!!SMS-shelfwork: 002 W
!!!SMS-variant:
!!!SMS-altvar:
!!!NIFC-rismSourceID: 1001177795
!!!NIFC-rismChildID: 1001177795
!!!NIFC-islandoraID: pl-wumfc:7817
!!!URL-pdf-islandora: https://repozytorium.nifc.pl/islandora/object/pl-wumfc%3A7817/datastream/PDF/view
!!!URL-scan: https://polish.musicsources.pl/pl/lokalizacje/galeria/druki-muzyczne/12497 @EN{Scan on Polish Music Sources Website} @PL{Skany w portalu Dziedzictwo Muzyki Polskiej w otwartym dostępie}
!!!IIIF:
!!!ONB-nifc:
!!!AIN: 2 piano 1 vox
!!!key: A-
**kern	**kern	**dynam	**kern	**text	**dynam
*part3	*part2	*	*part1	*	*
*staff3	*staff2	*	*staff1	*	*
*I"Piano	*I"Fortepian.	*	*I"Śpiew.	*	*
*	*I'pf	*	*I'Ś	*	*
*Ipiano	*Ipiano	*	*Ivox	*	*
*ICklav	*ICklav	*	*ICvox	*	*
*clefF4	*clefG2	*	*clefG2	*	*
*k[b-e-a-d-]	*k[b-e-a-d-]	*	*k[b-e-a-d-]	*	*
*A-:	*A-:	*	*A-:	*	*
*M3/4	*M3/4	*	*M3/4	*	*
=1	=1	=1	=1	=1	=1
!	!	!	!LO:TX:a:t=Tempo di Mazurka.	!	!
4AA-/ 4E-	2.r	pp	2.r	.	.
4AA-/ 4E-	.	.	.	.	.
4AA-/ 4E-	.	.	.	.	.
=2	=2	=2	=2	=2	=2
4AA-/ 4E-	4r	.	2.r	.	.
4AA-/ 4E-	4r	.	.	.	.
4AA-/ 4E-	[4cc\	.	.	.	.
=3	=3	=3	=3	=3	=3
4AA-/ 4E-	4.cc\]	.	2.r	.	.
4AA-/ 4E-	.	.	.	.	.
.	8dd-\	.	.	.	.
4AA-/ 4E-	8f/L	.	.	.	.
.	8b-/J	.	.	.	.
=4	=4	=4	=4	=4	=4
4AA-/ 4E-	8e-\L	.	2.r	.	.
.	8a-\	.	.	.	.
4AA-/ 4E-	8cc\	.	.	.	.
.	8ff\J	.	.	.	.
4AA-/ 4E-	4ee-\	.	.	.	.
=5	=5	=5	=5	=5	=5
4AA-/ 4E-	4.cc\	.	2.r	.	.
4AA-/ 4E-	.	.	.	.	.
.	8dd-\	.	.	.	.
4AA-/ 4E-	8f/L	.	.	.	.
.	8b-/J	.	.	.	.
=6	=6	=6	=6	=6	=6
4AA-/ 4E-	8e-\L	<	2.r	.	.
.	8a-\	.	.	.	.
4AA-/ 4E-	8cc\	.	.	.	.
.	8ff\J	.	.	.	.
4AA-/ 4E-	[4ee-\	.	.	.	.
=7	=7	=7	=7	=7	=7
4AA-/ 4E-	8ee-\L]	.	2.r	.	.
.	8e-\	.	.	.	.
4AA-/ 4E-	8a-\	.	.	.	.
.	8ff\J	.	.	.	.
4AA-/ 4E-	[4ee-\	.	.	.	.
!LO:LB:g=original	!LO:LB:g=original	!	!LO:LB:g=original	!	!
=8	=8	=8	=8	=8	=8
4AA-/ 4E-	8ee-\L]	.	2.r	.	.
.	8e-\	.	.	.	.
4AA-/ 4E-	8a-\	.	.	.	.
.	8ff\	.	.	.	.
4AA-/ 4E-	8ee-\	[	.	.	.
.	8a-\J	.	.	.	.
=9	=9	=9	=9	=9	=9
*^	*^	*	*	*	*
2E-/	2AA-;\	2ee-;/	2a-\	sf	4r	.	.
.	.	.	.	.	4r;	.	.
!	!	!	!	!	!	!	!LO:DY:a
4r	4ryy	4r	4ryy	.	8.e-/	O	p
.	.	.	.	.	16cc\	dzie-	.
*v	*v	*	*	*	*	*	*
*	*v	*v	*	*	*	*
=10	=10	=10	=10	=10	=10
4E-\	4r	.	4.cc\	-wi-	.
4r	4d-/ 4e- 4g	.	.	.	.
.	.	.	8dd-\	-ce!	.
4r	4d-/ 4e- 4g	.	8f/	Spół-	.
.	.	.	8b-\	-sio-	.
=11	=11	=11	=11	=11	=11
4AA-/	4r	.	4e-/	-strzy-	.
4r	4c/ 4e- 4a-	.	2a-/	-ce,	.
4r	4c/ 4e- 4a-	.	.	.	.
=12	=12	=12	=12	=12	=12
!	!	!	!	!	!LO:DY:a
*ped	*	*	*	*	*
4AA-/	4r	.	8a-/	Dum-	<
.	.	.	8g/	-ki	.
4A-\ 4c	4e-/ 4a-	<	8a-/	nio-	.
.	.	.	8cc\	-sę	.
*Xped	*	*	*	*	*
4G-X\ 4c	4a-\ 4ee-	.	8ee-\	dum-	.
.	.	.	8ee--\	-ki	.
!LO:LB:g=original	!LO:LB:g=original	!	!LO:LB:g=original	!	!
=13	=13	=13	=13	=13	=13
2F\ 2d-	2a-\ 2dd- 2aa-	.	4dd-\	wam;	.
.	.	.	4r	.	.
4r	4r	[	8dd-\	Z mej	[
.	.	.	8cc\	dzie-	.
=14	=14	=14	=14	=14	=14
4r	4r	.	4b-\	-dzi-	.
4d-\	4g\ 4b- 4ff	.	4ff\	-ny,	.
4r	4r	.	8b-\	Ten	.
.	.	.	8a-/	je-	.
=15	=15	=15	=15	=15	=15
*	*^	*	*	*	*
4r	4r	4ryy	>	4g/	-dy-	.
!	!	!	!	!	!	!LO:DY:a
4C/	2cc/	4en\ 4b-	.	[2cc\	-ny	>]
4F\	.	4e-X\ 4an	]	.	.	.
*	*v	*v	*	*	*	*
=16	=16	=16	=16	=16	=16
4BB-/	4r	.	8cc/L]	.	.
.	.	.	8f/J	.	.
4B-\	4dn/ 4a-X 4b-	.	8g/	skarb	.
.	.	.	8a-/	pio-	.
4BB-/	4A-/ 4d	.	8b-\	-se-	.
.	.	.	8b-\	-nek	.
=17	=17	=17	=17	=17	=17
4E-\	4G/ 4e-	.	4e-/	mam.	.
4EE-/	4r	.	4r	.	.
4r	4r	.	8.e-/	W wa-	.
.	.	.	16cc\	-sze	.
!LO:LB:g=original	!LO:LB:g=original	!	!LO:LB:g=original	!	!
=18	=18	=18	=18	=18	=18
4E-\	4r	.	4.cc\	rę-	.
4r	4d-X/ 4e- 4g	.	.	.	.
.	.	.	8dd-\	-ce	.
4r	4d-/ 4e- 4g	.	8f/	skarb	.
.	.	.	8b-\	mój	.
=19	=19	=19	=19	=19	=19
4AA-/	4r	.	4e-/	świę-	.
4r	4c/ 4e- 4a-	.	2a-/	-cę	.
4r	4c/ 4e- 4a-	.	.	.	.
=20	=20	=20	=20	=20	=20
!	!	!	!	!	!LO:DY:a
*ped	*	*	*	*	*
4AA-/	4r	.	8a-/	Daj-	<
.	.	.	8g/	-cie	.
4A-\ 4c	4e-/ 4a-	<	8a-/	bia-	.
.	.	.	8cc\	-łą	.
4G-X\ 4c	4a-\ 4ee-	[[	8ee-\	daj-	.
.	.	.	8ee--\	-cie	[[
*Xped	*	*	*	*	*
=21	=21	=21	=21	=21	=21
*ped	*	*	*	*	*
2F\ 2d-	2a-\ 2dd- 2aa-	.	4dd-\	dłoń;	.
.	.	.	4r	.	.
!	!	!	!	!	!LO:DY:a
*Xped	*	*	*	*	*
4r	4r	.	8dd-\	W wa-	p
.	.	.	8cc\	-sze	.
=22	=22	=22	=22	=22	=22
4r	4r	.	4b-\	rę-	.
4d-'\	4g'\ 4b- 4ff	.	4ff\	-ce	.
4r	4r	.	8b-\	skarb	.
.	.	.	8a-/	mój	.
!LO:LB:g=original	!LO:LB:g=original	!	!LO:LB:g=original	!	!
=23	=23	=23	=23	=23	=23
4r	4r	.	4g/	świę-	.
!	!	!	!	!	!LO:DY:a
4An\	4e-/ 4f#X 4cc	>	2cc\	-cę	>]
4AAn/	4e-/ 4f# 4cc	]]	.	.	.
=24	=24	=24	=24	=24	=24
4BB-/	4r	.	8cc\	Daj-	.
.	.	.	8b-\	-cie	.
4B-\	4e-/ 4g 4b-	.	8ee-\	bia-	.
.	.	.	8g/	-łą	.
4BB-/	4dn/ 4a- 4b-	.	8b-\	daj-	.
.	.	.	8b-\	-cie	.
=25	=25	=25	=25	=25	=25
4E-\	4e-/	.	4e-/	dłoń;	.
4G\ 4B- 4e-	2ee-^\	.	[2ee-^\	A!	.
4G\ 4B- 4e-	.	.	.	.	.
=26	=26	=26	=26	=26	=26
!	!LO:TX:b:t=leggiero	!	!	!	!
4C/	8an'\L	.	4ee-\]	.	.
.	8b-'\	.	.	.	.
4F\ 4An 4e-	8cc'\	.	4ee-\	Mam	.
.	8dd-'\	.	.	.	.
4F\ 4A 4e-	8ee-'\	.	4ee-\	i	.
.	8ff'\J	.	.	.	.
=27	=27	=27	=27	=27	=27
4BB-/	(8gg\L	.	(8ee-/L	kwiat-	.
.	8g/J	.	8g/J)	.	.
4G\ 4B- 4e-	2b-\)	.	2b-\	-ki	.
4G\ 4B- 4e-	.	.	.	.	.
!LO:LB:g=original	!LO:LB:g=original	!	!LO:LB:g=original	!	!
=28	=28	=28	=28	=28	=28
4BB-/	(8b-M\L	.	4r	.	.
.	8an\	.	.	.	.
4A-X\ 4dn	8b-\	.	8b-\	skrom-	.
.	8bn\	.	8bn\	-ne	.
4A-\ 4d	8cc\	.	(8cc\L	bra-	.
.	8a-X\J)	.	8a-\J)	.	.
=29	=29	=29	=29	=29	=29
4C/	4g/	.	4g/	-tki,	.
4G\ 4e-	2ee-\	.	[2ee-^\	A!	.
4G\ 4e-	.	.	.	.	.
=30	=30	=30	=30	=30	=30
4FF/	8an'\L	.	4ee-\]	.	.
.	8b-'\	.	.	.	.
4F\ 4An 4e-	8cc'\	.	4ee-\	skrom-	.
.	8dd-'\	.	.	.	.
4F\ 4A 4e-	8ee-'\	.	4ee-\	-ne	.
.	8ff'\J	.	.	.	.
=31	=31	=31	=31	=31	=31
4BB-/	(8gg\L	.	(8ee-/L	bra-	.
.	8g/J	.	8g/J)	.	.
4G\ 4B- 4e-	2b-\)	.	2b-\	-tki	.
4G\ 4B- 4e-	.	.	.	.	.
=32	=32	=32	=32	=32	=32
4BB-/	(8b-M\L	.	4r	.	.
.	8an\	.	.	.	.
4A-X\ 4B- 4dn	8b-\	.	8b-\	Z mych	.
.	8bn\	.	8bn\	ro-	.
4BB-/	8cc\	.	8cc\	-dzin-	.
.	8dn\J)	.	8dn/	-nych	.
=33	=33	=33	=33	=33	=33
4E-\ 4G	4e-/	.	4e-/	błoń.	.
4EE-/	4r	.	4r	.	.
4r	4r	.	8.e-/	A	.
.	.	.	16cc\	wza	.
!LO:LB:g=original	!LO:LB:g=original	!	!LO:LB:g=original	!	!
=34	=34	=34	=34	=34	=34
4E-\	4r	.	4.cc\	da-	.
4r	4d-X/ 4e- 4g	.	.	.	.
.	.	.	8dd-\	-tek	.
4r	4d-/ 4e- 4g	.	8f/	za	.
.	.	.	8b-\	pieśń	.
=35	=35	=35	=35	=35	=35
4AA-/	4r	.	4e-/	kwia-	.
4r	4c/ 4e- 4a-	.	2a-/	-tek,	.
4r	4c/ 4e- 4a-	.	.	.	.
=36	=36	=36	=36	=36	=36
!	!	!	!	!	!LO:DY:a
*ped	*	*	*	*	*
4AA-/	4r	.	8a-/	Że-	<
.	.	.	8g/	-brze	.
4A-\ 4c	4d-/ 4a-	<	8a-/	piel-	.
.	.	.	8cc\	-grzym	.
4G-X\ 4c	4a-\ 4ee-	[[	8ee-\	że-	.
*Xped	*	*	*	*	*
.	.	.	8ee--\	-brze	[[
=37	=37	=37	=37	=37	=37
*ped	*	*	*	*	*
2F\ 2d-	2a-\ 2dd- 2aa-	.	4dd-\	brat	.
.	.	.	4r	.	.
!	!	!	!	!	!LO:DY:a
*Xped	*	*	*	*	*
4r	4r	.	8dd-\	O	p
.	.	.	8cc\	łzę	.
=38	=38	=38	=38	=38	=38
4r	4r	.	4b-\	czy-	.
4d-'\	4g'\ 4b- 4ff	.	4ff\	-stą,	.
4r	4r	.	8g/	Po	.
.	.	.	8f/	oj-	.
!LO:LB:g=original	!LO:LB:g=original	!	!LO:LB:g=original	!	!
=39	=39	=39	=39	=39	=39
*	*^	*	*	*	*
4r	4r	4ryy	.	4en/	-czy-	.
4C/	2cc/	4en\ 4cc	.	4cc\	-stą	.
4F\	.	4e-X\ 4an	.	4cc\	I	.
*	*v	*v	*	*	*	*
=40	=40	=40	=40	=40	=40
4BB-/	4r	.	(8cc/L	spół-	.
.	.	.	8b-/	.	.
4B-\	4dn/ 4a-X 4b-	.	8f/	.	.
.	.	.	8a-/J)	.	.
4E-\	4d-X/ 4g 4b-	.	8g/	-czu-	.
.	.	.	8b-\	-cia	.
=41	=41	=41	=41	=41	=41
4A-\	4c/ 4a-	.	4a-/	kwiat!	.
4AA-/ 4E-	4r	pp	4r	.	.
4AA-/ 4E-	[4cc\	.	4r	.	.
=42	=42	=42	=42	=42	=42
4AA-/ 4E-	4.cc\]	.	2.r	.	.
4AA-/ 4E-	.	.	.	.	.
.	8dd-\	.	.	.	.
4AA-/ 4E-	8f/L	.	.	.	.
.	8b-/J	.	.	.	.
=43	=43	=43	=43	=43	=43
4AA-/ 4E-	8e-\L	.	2.r	.	.
.	8a-\	.	.	.	.
4AA-/ 4E-	8cc\	.	.	.	.
.	8ff\J	.	.	.	.
4AA-/ 4E-	4ee-\	.	.	.	.
=44	=44	=44	=44	=44	=44
4AA-/ 4E-	4.cc\	.	2.r	.	.
4AA-/ 4E-	.	.	.	.	.
.	8dd-\	.	.	.	.
4AA-/ 4E-	8f/L	.	.	.	.
.	8b-/J	.	.	.	.
!LO:LB:g=original	!LO:LB:g=original	!	!LO:LB:g=original	!	!
=45	=45	=45	=45	=45	=45
4AA-/ 4E-	8e-\L	.	2.r	.	.
.	8a-\	.	.	.	.
4AA-/ 4E-	8cc\	.	.	.	.
.	8ff\J	.	.	.	.
!	!	!LO:HP:t=crescendo	!	!	!
4AA-/ 4E-	[4ee-\	<	.	.	.
=46	=46	=46	=46	=46	=46
4AA-/ 4E-	8ee-\L]	.	2.r	.	.
.	8e-\	.	.	.	.
4AA-/ 4E-	8a-\	.	.	.	.
.	8ff\J	.	.	.	.
4AA-/ 4E-	[4ee-\	.	.	.	.
=47	=47	=47	=47	=47	=47
4AA-/ 4E-	8ee-\L]	.	2.r	.	.
.	8e-\	.	.	.	.
4AA-/ 4E-	8a-\	.	.	.	.
.	8ff\J	.	.	.	.
4AA-/ 4E-	[4ee-\	.	.	.	.
=48	=48	=48	=48	=48	=48
4AA-/ 4E-	8ee-\L]	.	2.r	.	.
.	8e-\	.	.	.	.
4AA-/ 4E-	8a-\	.	.	.	.
.	8ff\	.	.	.	.
4AA-/ 4E-	8ee-\	.	.	.	.
.	8e-\J	.	.	.	.
=49	=49	=49	=49	=49	=49
4AA-/ 4E-	8a-\L	.	2.r	.	.
.	8ff\	.	.	.	.
4AA-/ 4E-	8ee-\	.	.	.	.
.	8e-\	.	.	.	.
4AA-/ 4E-	8a-\	.	.	.	.
.	8ff\J	.	.	.	.
=50	=50	=50	=50	=50	=50
4AA-/ 4E-	4ee-\	.	2.r	.	.
!	!LO:TX:b:t=perdendosi	!LO:DY:a	!	!	!
4r	[2aa-^<\	sf	.	.	.
4F-X\ 4A- 4B- 4dn	.	.	.	.	.
=51	=51	=51	=51	=51	=51
4E-\ 4A- 4c 4e-	4aa-\]	.	2.r	.	.
4r	[2ee-^<\	.	.	.	.
4E-\ 4G 4d-X	.	.	.	.	.
=52	=52	=52	=52	=52	=52
2.A-;\ 2.c	4ee-\]	.	2.r	.	.
.	2a-;/	.	.	.	.
==	==	==	==	==	==
*-	*-	*-	*-	*-	*-
!!!RDF**kern: > = above
!!!RDF**kern: < = below
!!!system-decoration: s1[(s2,s3)]
!!!ENC: Andrzej Gręziak
!!!END: 2022-08-18
!!!ENC: Julita Ruszuk
!!!END: 2022-09-22
